X: 39041
T: Swans At Coole
R: reel
M: 4/4
K: Eminor
B4 A3 G/A/|B2 E2 E2 D2|G2 C2 B,2 A,G,|A,B, DC B,4|
B2 A3 G/A/ B2|E2 E3/2D/ CA, B,2|G2 EA FB AF|E2 ED E2 FA:|
|:B2 e2 f3 g|ed BA BE FA|B2 e2 f4|ag ed B d3|
eB eb a3 g/a/|ba fg ed BA|B2 E2 A2 Bd|B2 E2 A2 FA:|

